images/icon-youtube.svg

<svg width="28" height="20" viewBox="0 0 28 20" fill="none" xmlns="http://www.w3.org/2000/svg">
<path opacity="0.6" d="M27.2304 4.66633C27.2304 4.66633 26.9623 2.7733 26.1364 1.94208C25.0907 0.848087 23.9216 0.842724 23.3854 0.778372C19.5457 0.499512 13.7808 0.499512 13.7808 0.499512H13.77C13.77 0.499512 8.00512 0.499512 4.16543 0.778372C3.62916 0.842724 2.46009 0.848087 1.41436 1.94208C0.588508 2.7733 0.325735 4.66633 0.325735 4.66633C0.325735 4.66633 0.046875 6.89185 0.046875 9.11201V11.1927C0.046875 13.4129 0.320373 15.6384 0.320373 15.6384C0.320373 15.6384 0.588508 17.5315 1.409 18.3627C2.45473 19.4567 3.82758 19.4191 4.43893 19.5371C6.63764 19.7462 13.7754 19.8106 13.7754 19.8106C13.7754 19.8106 19.5457 19.7999 23.3854 19.5264C23.9216 19.462 25.0907 19.4567 26.1364 18.3627C26.9623 17.5315 27.2304 15.6384 27.2304 15.6384C27.2304 15.6384 27.5039 13.4183 27.5039 11.1927V9.11201C27.5039 6.89185 27.2304 4.66633 27.2304 4.66633ZM10.9385 13.7186V6.00164L18.3551 9.87351L10.9385 13.7186Z" fill="white"/>
</svg>

<svg xmlns="http://www.w3.org/2000/svg" width="28" height="20" fill="none"><path fill="#fff" d="M27.23 4.666s-.268-1.893-1.094-2.724C25.091.848 23.922.842 23.386.778 19.545.5 13.78.5 13.78.5h-.011S8.005.5 4.165.778c-.536.065-1.705.07-2.75 1.164-.826.831-1.09 2.724-1.09 2.724S.048 6.892.048 9.112v2.08c0 2.22.273 4.446.273 4.446s.269 1.894 1.089 2.725c1.046 1.094 2.419 1.056 3.03 1.174 2.199.21 9.336.274 9.336.274s5.77-.011 9.61-.285c.537-.064 1.706-.07 2.751-1.163.826-.831 1.094-2.725 1.094-2.725s.274-2.22.274-4.445V9.112c0-2.22-.274-4.446-.274-4.446ZM10.94 13.72V6.002l7.416 3.872-7.417 3.845Z" opacity=".6"/></svg>
